Catalina-light/apps/scalable/AdobeBridge.svg

<?xml version="1.0" encoding="UTF-8" standalone="no"?>
<!-- Created with Inkscape (http://www.inkscape.org/) -->

<svg
   xmlns:dc="http://purl.org/dc/elements/1.1/"
   xmlns:cc="http://creativecommons.org/ns#"
   xmlns:rdf="http://www.w3.org/1999/02/22-rdf-syntax-ns#"
   xmlns:svg="http://www.w3.org/2000/svg"
   xmlns="http://www.w3.org/2000/svg"
   xmlns:xlink="http://www.w3.org/1999/xlink"
   xmlns:sodipodi="http://sodipodi.sourceforge.net/DTD/sodipodi-0.dtd"
   xmlns:inkscape="http://www.inkscape.org/namespaces/inkscape"
   version="1.1"
   id="svg2"
   width="25.6"
   height="25.6"
   viewBox="0 0 25.6 25.6"
   sodipodi:docname="AdobeBridge.svg"
   inkscape:version="0.92.4 5da689c313, 2019-01-14">
  <metadata
     id="metadata8">
    <rdf:RDF>
      <cc:Work
         rdf:about="">
        <dc:format>image/svg+xml</dc:format>
        <dc:type
           rdf:resource="http://purl.org/dc/dcmitype/StillImage" />
        <dc:title></dc:title>
      </cc:Work>
    </rdf:RDF>
  </metadata>
  <defs
     id="defs6">
    <linearGradient
       inkscape:collect="always"
       id="linearGradient835">
      <stop
         style="stop-color:#483815;stop-opacity:1"
         offset="0"
         id="stop831" />
      <stop
         style="stop-color:#2a200c;stop-opacity:1"
         offset="1"
         id="stop833" />
    </linearGradient>
    <linearGradient
       inkscape:collect="always"
       id="linearGradient825">
      <stop
         style="stop-color:#f9d16c;stop-opacity:1"
         offset="0"
         id="stop821" />
      <stop
         style="stop-color:#f7bb49;stop-opacity:1"
         offset="1"
         id="stop823" />
    </linearGradient>
    <linearGradient
       inkscape:collect="always"
       xlink:href="#linearGradient825"
       id="linearGradient827"
       x1="1.3016944"
       y1="1.6271178"
       x2="16.054235"
       y2="17.464407"
       gradientUnits="userSpaceOnUse" />
    <linearGradient
       inkscape:collect="always"
       xlink:href="#linearGradient835"
       id="linearGradient837"
       x1="4.6644068"
       y1="5.0983052"
       x2="20.338984"
       y2="21.206779"
       gradientUnits="userSpaceOnUse" />
  </defs>
  <sodipodi:namedview
     pagecolor="#ffffff"
     bordercolor="#666666"
     borderopacity="1"
     objecttolerance="10"
     gridtolerance="10"
     guidetolerance="10"
     inkscape:pageopacity="0"
     inkscape:pageshadow="2"
     inkscape:window-width="1920"
     inkscape:window-height="1027"
     id="namedview4"
     showgrid="false"
     inkscape:zoom="13.037281"
     inkscape:cx="11.898069"
     inkscape:cy="15.452744"
     inkscape:window-x="0"
     inkscape:window-y="30"
     inkscape:window-maximized="1"
     inkscape:current-layer="svg2" />
  <rect
     style="opacity:1;fill:url(#linearGradient827);fill-opacity:1;stroke:none;stroke-width:0.1;stroke-linecap:square;stroke-linejoin:miter;stroke-miterlimit:4;stroke-dasharray:none;stroke-dashoffset:0;stroke-opacity:1;paint-order:fill markers stroke"
     id="rect819"
     width="23.972881"
     height="23.972881"
     x="0.75932145"
     y="0.8677966" />
  <rect
     style="opacity:1;fill:url(#linearGradient837);fill-opacity:1;stroke:none;stroke-width:0.1;stroke-linecap:square;stroke-linejoin:miter;stroke-miterlimit:4;stroke-dasharray:none;stroke-dashoffset:0;stroke-opacity:1;paint-order:fill markers stroke"
     id="rect829"
     width="20.067797"
     height="20.067797"
     x="2.60339"
     y="2.7661018" />
  <path
     style="opacity:1;fill:#000000;fill-opacity:0.26373628;stroke:none;stroke-width:0.1;stroke-linecap:square;stroke-linejoin:miter;stroke-miterlimit:4;stroke-dasharray:none;stroke-dashoffset:0;stroke-opacity:1;paint-order:fill markers stroke"
     d="M 2.6035156 2.765625 L 2.6035156 22.833984 L 22.671875 22.833984 L 22.671875 2.765625 L 2.6035156 2.765625 z M 3.0097656 3.1738281 L 22.263672 3.1738281 L 22.263672 22.427734 L 3.0097656 22.427734 L 3.0097656 3.1738281 z "
     id="rect839" />
  <g
     aria-label="Au"
     style="font-style:normal;font-variant:normal;font-weight:600;font-stretch:normal;font-size:10.76398277px;line-height:125%;font-family:'Source Sans Pro';-inkscape-font-specification:'Source Sans Pro Semi-Bold';letter-spacing:0px;word-spacing:0px;fill:#e7ba59;fill-opacity:1;stroke:none;stroke-width:0.26909959px;stroke-linecap:butt;stroke-linejoin:miter;stroke-opacity:1"
     id="text846">
    <path
       d="m 9.3119766,13.424728 0.2475716,-0.861119 c 0.2260436,-0.742715 0.4305593,-1.53925 0.6243108,-2.32502 h 0.04306 c 0.204516,0.775006 0.409031,1.582305 0.635075,2.32502 l 0.247572,0.861119 z m 2.6264114,2.884747 h 1.313206 L 10.958866,9.2698302 H 9.4949643 L 7.202236,16.309475 H 8.4723859 L 9.0213491,14.40425 h 2.3680759 z"
       style="fill:#e7ba59;fill-opacity:1;stroke-width:0.26909959px"
       id="path913" />
    <path
       d="m 13.919114,14.339666 c 0,1.334734 0.495143,2.098977 1.625362,2.098977 0.721186,0 1.237858,-0.355212 1.700709,-0.904175 h 0.03229 l 0.09688,0.775007 h 1.011814 v -5.285116 h -1.237858 v 3.616699 c -0.398267,0.516671 -0.710423,0.73195 -1.173274,0.73195 -0.570491,0 -0.818063,-0.322919 -0.818063,-1.194802 v -3.153847 h -1.237858 z"
       style="fill:#e7ba59;fill-opacity:1;stroke-width:0.26909959px"
       id="path915" />
  </g>
</svg>

<svg width="25.6" height="25.6" version="1.1" viewBox="0 0 25.6 25.6" xmlns="http://www.w3.org/2000/svg">
<defs>
<linearGradient id="linearGradient827" x1="1.3017" x2="16.054" y1="1.6271" y2="17.464" gradientUnits="userSpaceOnUse"/>
<linearGradient id="linearGradient837" x1="4.6644" x2="20.339" y1="5.0983" y2="21.207" gradientUnits="userSpaceOnUse"/>
</defs>
<rect x=".75932" y=".8678" width="23.973" height="23.973" fill="url(#linearGradient827)" style="paint-order:fill markers stroke"/>
<rect x="2.6034" y="2.7661" width="20.068" height="20.068" fill="url(#linearGradient837)" style="paint-order:fill markers stroke"/>
<path d="m2.6035 2.7656v20.068h20.068v-20.068h-20.068zm0.40625 0.4082h19.254v19.254h-19.254v-19.254z" fill-opacity=".26374" style="paint-order:fill markers stroke"/>
<g fill="#e7ba59" stroke-width=".2691px" aria-label="Au">
<path d="m9.312 13.425 0.24757-0.86112c0.22604-0.74272 0.43056-1.5392 0.62431-2.325h0.04306c0.20452 0.77501 0.40903 1.5823 0.63508 2.325l0.24757 0.86112zm2.6264 2.8847h1.3132l-2.2927-7.0396h-1.4639l-2.2927 7.0396h1.2701l0.54896-1.9052h2.3681z"/>
<path d="m13.919 14.34c0 1.3347 0.49514 2.099 1.6254 2.099 0.72119 0 1.2379-0.35521 1.7007-0.90418h0.03229l0.09688 0.77501h1.0118v-5.2851h-1.2379v3.6167c-0.39827 0.51667-0.71042 0.73195-1.1733 0.73195-0.57049 0-0.81806-0.32292-0.81806-1.1948v-3.1538h-1.2379z"/>
</g>
</svg>
